svg/UnitedNations-Flags/flag-cv.svg

<?xml version="1.0" encoding="UTF-8" standalone="no"?>
<svg height="256" id="svg2" inkscape:output_extension="org.inkscape.output.svg.inkscape" inkscape:version="0.46" sodipodi:docname="Flag_of_Cape_Verde.svg" sodipodi:version="0.32" version="1.0" width="256" xmlns="http://www.w3.org/2000/svg" xmlns:cc="http://creativecommons.org/ns#" xmlns:dc="http://purl.org/dc/elements/1.1/" xmlns:inkscape="http://www.inkscape.org/namespaces/inkscape" xmlns:rdf="http://www.w3.org/1999/02/22-rdf-syntax-ns#" xmlns:sodipodi="http://sodipodi.sourceforge.net/DTD/sodipodi-0.dtd" xmlns:svg="http://www.w3.org/2000/svg" xmlns:xlink="http://www.w3.org/1999/xlink">
  <metadata>
    <rdf:RDF xmlns:cc="http://web.resource.org/cc/" xmlns:dc="http://purl.org/dc/elements/1.1/" xmlns:rdf="http://www.w3.org/1999/02/22-rdf-syntax-ns#">
      <cc:Work rdf:about="">
        <dc:title></dc:title>
        <dc:description></dc:description>
        <dc:subject>
          <rdf:Bag>
            <rdf:li>unsorted</rdf:li>
          </rdf:Bag>
        </dc:subject>
        <dc:publisher>
          <cc:Agent rdf:about="http://www.openclipart.org/">
            <dc:title>Open Clip Art Library, Source: Wikimedia Commons, Source: Wikimedia Commons, Source: Wikimedia Commons, Source: Wikimedia Commons</dc:title>
          </cc:Agent>
        </dc:publisher>
        <dc:creator>
          <cc:Agent>
            <dc:title></dc:title>
          </cc:Agent>
        </dc:creator>
        <dc:rights>
          <cc:Agent>
            <dc:title></dc:title>
          </cc:Agent>
        </dc:rights>
        <dc:date></dc:date>
        <dc:format>image/svg+xml</dc:format>
        <dc:type rdf:resource="http://purl.org/dc/dcmitype/StillImage"/>
        <cc:license rdf:resource="http://en.wikipedia.org/wiki/Public_domain"/>
        <dc:language>en</dc:language>
      </cc:Work>
    </rdf:RDF>
  </metadata>
  <defs id="defs21">
    <inkscape:perspective id="perspective25" inkscape:persp3d-origin="255 : 100 : 1" inkscape:vp_x="0 : 150 : 1" inkscape:vp_y="0 : 1000 : 0" inkscape:vp_z="510 : 150 : 1" sodipodi:type="inkscape:persp3d"/>
  </defs>
  <sodipodi:namedview bordercolor="#666666" borderopacity="1.0" gridtolerance="10.0" guidetolerance="10.0" id="base" inkscape:current-layer="svg2" inkscape:cx="255" inkscape:cy="150" inkscape:pageopacity="0.0" inkscape:pageshadow="2" inkscape:window-height="712" inkscape:window-width="921" inkscape:window-x="40" inkscape:window-y="184" inkscape:zoom="1.0960784" objecttolerance="10.0" pagecolor="#ffffff" showgrid="false"/>
  <rect height="150.58824" id="rect4" style="fill:#003893" width="256" x="0" y="52.411758"/>
  <rect height="37.64706" id="rect6" style="fill:#ffffff" width="256" x="0" y="127.70589"/>
  <rect height="12.54902" id="rect8" style="fill:#ce1126" width="256" x="0" y="140.2549"/>
  <path d="M 95.99997,101.35278 L 94.309843,106.55447 L 88.840463,106.55447 L 93.265283,109.76929 L 91.57515,114.97098 L 95.99997,111.75616 L 100.42479,114.97098 L 98.734662,109.76929 L 103.15948,106.55447 L 97.690102,106.55447 L 95.99997,101.35278 z" id="path2937" style="fill:#ffcc00"/>
  <use height="300" id="use2409" transform="translate(-22.126431,7.18808)" width="510" x="0" xlink:href="#path2937" y="0"/>
  <use height="300" id="use2393" transform="translate(22.126431,7.18808)" width="510" x="0" xlink:href="#path2937" y="0"/>
  <use height="300" id="use2395" transform="translate(35.804863,26.01162)" width="510" x="0" xlink:href="#path2937" y="0"/>
  <use height="300" id="use2397" transform="translate(35.804863,49.28252)" width="510" x="0" xlink:href="#path2937" y="0"/>
  <use height="300" id="use2399" transform="translate(22.126431,68.10605)" width="510" x="0" xlink:href="#path2937" y="0"/>
  <use height="300" id="use2401" transform="translate(0,75.29409)" width="510" x="0" xlink:href="#path2937" y="0"/>
  <use height="300" id="use2403" transform="translate(-22.126431,68.10605)" width="510" x="0" xlink:href="#path2937" y="0"/>
  <use height="300" id="use2405" transform="translate(-35.804843,49.28252)" width="510" x="0" xlink:href="#path2937" y="0"/>
  <use height="300" id="use2407" transform="translate(-35.804843,26.01162)" width="510" x="0" xlink:href="#path2937" y="0"/>
</svg>

<svg xmlns="http://www.w3.org/2000/svg" xmlns:xlink="http://www.w3.org/1999/xlink" viewBox="0 0 256 256"><path fill="#003893" d="m0 52.41h256v150.59h-256z"/><path fill="#fff" d="m0 127.71h256v37.647h-256z"/><path fill="#ce1126" d="m0 140.25h256v12.549h-256z"/><path d="m96 101.35l-1.69 5.202h-5.469l4.425 3.215-1.69 5.202 4.425-3.215 4.425 3.215-1.69-5.202 4.425-3.215h-5.469l-1.69-5.202" id="0" fill="#fc0"/><use height="300" transform="translate(-22.13 7.188)" width="510" xlink:href="#0"/><use height="300" transform="translate(22.13 7.188)" width="510" xlink:href="#0"/><use height="300" transform="translate(35.805 26.01)" width="510" xlink:href="#0"/><use height="300" transform="translate(35.805 49.28)" width="510" xlink:href="#0"/><use height="300" transform="translate(22.13 68.11)" width="510" xlink:href="#0"/><use height="300" transform="translate(0 75.29)" width="510" xlink:href="#0"/><use height="300" transform="translate(-22.13 68.11)" width="510" xlink:href="#0"/><use height="300" transform="translate(-35.805 49.28)" width="510" xlink:href="#0"/><use height="300" transform="translate(-35.805 26.01)" width="510" xlink:href="#0"/></svg>
